static/low-badge.svg

<?xml version="1.0" encoding="UTF-8" standalone="no"?>
<!-- Created with Inkscape (http://www.inkscape.org/) -->

<!--           by M3n747  <m3n747@gmail.com           -->

<svg
   width="72"
   height="36"
   viewBox="0 0 19.049999 9.5250007"
   version="1.1"
   id="svg1"
   xml:space="preserve"
   inkscape:version="1.3.2 (091e20ef0f, 2023-11-25, custom)"
   sodipodi:docname="low-badge.svg"
   xmlns:inkscape="http://www.inkscape.org/namespaces/inkscape"
   xmlns:sodipodi="http://sodipodi.sourceforge.net/DTD/sodipodi-0.dtd"
   xmlns="http://www.w3.org/2000/svg"
   xmlns:svg="http://www.w3.org/2000/svg"><sodipodi:namedview
     id="namedview1"
     pagecolor="#ffffff"
     bordercolor="#666666"
     borderopacity="1.0"
     inkscape:showpageshadow="2"
     inkscape:pageopacity="0.0"
     inkscape:pagecheckerboard="0"
     inkscape:deskcolor="#d1d1d1"
     inkscape:document-units="px"
     inkscape:zoom="8"
     inkscape:cx="113.8125"
     inkscape:cy="35.875"
     inkscape:window-width="5120"
     inkscape:window-height="1412"
     inkscape:window-x="0"
     inkscape:window-y="0"
     inkscape:window-maximized="1"
     inkscape:current-layer="layer3"
     showguides="true"
     showgrid="false" /><defs
     id="defs1" /><g
     inkscape:groupmode="layer"
     id="layer8"
     inkscape:label="Background"
     style="display:inline"
     transform="translate(-0.0289388)"><rect
       style="opacity:1;fill:#000000;stroke:none;stroke-width:0.0536947;stroke-linejoin:bevel;stroke-opacity:1;paint-order:markers fill stroke"
       id="rect63"
       width="19.049999"
       height="9.5250006"
       x="0.028938802"
       y="0"
       inkscape:label="BG" /></g><g
     inkscape:groupmode="layer"
     id="layer3"
     inkscape:label="Legacy"
     transform="matrix(1.1214579,0,0,1.1214579,0.72918248,0.12482327)"><path
       style="opacity:1;fill:#ffffff;stroke:none;stroke-width:0.119461;stroke-linejoin:bevel;stroke-opacity:1;paint-order:markers fill stroke"
       d="M 15.373753,1.5373947 14.509851,6.7252212 H 13.046316 L 12.679701,4.4695758 12.285315,6.7334048 H 10.841081 L 9.9689859,1.5373947 h 1.2831461 l 0.319398,1.840085 0.302734,-1.840085 h 1.599151 l 0.316621,1.8400825 0.311681,-1.8400825 z"
       id="path62"
       inkscape:label="W"
       sodipodi:nodetypes="cccccccccccccc" /><path
       id="rect5"
       style="opacity:1;fill:#ffffff;stroke:none;stroke-width:0.444044;stroke-linejoin:bevel;stroke-opacity:1;paint-order:markers fill stroke"
       inkscape:label="O"
       d="M 5.4298608,1.5373946 4.7814886,2.2691549 V 5.9642983 L 5.4520994,6.733405 H 8.180887 L 8.8225487,5.9779956 V 2.2666231 L 8.1741127,1.5373946 Z m 0.6700465,1.410946 H 7.5837645 V 5.308975 H 6.0999073 Z"
       sodipodi:nodetypes="cccccccccccccc" /><path
       id="rect21"
       style="opacity:1;fill:#ffffff;stroke:none;stroke-width:0.0921682;stroke-linejoin:bevel;stroke-opacity:1;paint-order:markers fill stroke"
       d="m 0.31264525,1.5373949 v 3.8706794 0.3730474 0.952283 H 3.634947 V 5.4080743 H 1.4590833 V 1.5373949 Z"
       inkscape:label="L" /></g></svg>

<svg xmlns="http://www.w3.org/2000/svg" xml:space="preserve" width="72" height="36" viewBox="0 0 19.05 9.525"><g style="display:inline"><path d="M.029 0h19.05v9.525H.029z" style="opacity:1;fill:#000;stroke:none;stroke-width:.0536947;stroke-linejoin:bevel;stroke-opacity:1;paint-order:markers fill stroke" transform="translate(-.029)"/></g><path d="m15.374 1.537-.864 5.188h-1.464L12.68 4.47l-.395 2.263h-1.444L9.97 1.537h1.283l.32 1.84.302-1.84h1.6l.316 1.84.312-1.84z" style="opacity:1;fill:#fff;stroke:none;stroke-width:.119461;stroke-linejoin:bevel;stroke-opacity:1;paint-order:markers fill stroke" transform="matrix(1.12146 0 0 1.12146 .73 .125)"/><path d="m5.43 1.537-.649.732v3.695l.671.77h2.729l.642-.756V2.267l-.649-.73Zm.67 1.411h1.484V5.31H6.1Z" style="opacity:1;fill:#fff;stroke:none;stroke-width:.444044;stroke-linejoin:bevel;stroke-opacity:1;paint-order:markers fill stroke" transform="matrix(1.12146 0 0 1.12146 .73 .125)"/><path d="M.313 1.537v5.196h3.322V5.408H1.459v-3.87Z" style="opacity:1;fill:#fff;stroke:none;stroke-width:.0921682;stroke-linejoin:bevel;stroke-opacity:1;paint-order:markers fill stroke" transform="matrix(1.12146 0 0 1.12146 .73 .125)"/></svg>
